source/images/icons/icon-editorial/porte-documents.svg

<?xml version="1.0" encoding="UTF-8"?>
<svg width="80px" height="80px" viewBox="0 0 80 80" version="1.1" xmlns="http://www.w3.org/2000/svg" xmlns:xlink="http://www.w3.org/1999/xlink">
    <!-- Generator: Sketch 55.2 (78181) - https://sketchapp.com -->
    <title>Illustrative Icons/Porte-documents</title>
    <desc>Created with Sketch.</desc>
    <g id="Illustrative-Icons/Porte-documents" stroke="none" stroke-width="1" fill="none" fill-rule="evenodd">
        <path d="M48.6666667,23.3333333 L32,23.3333333 C31.0795254,23.3333333 30.3333334,22.5871413 30.3333334,21.6666667 C30.3333334,20.7461921 31.0795254,20 32,20 L48.6666667,20 C49.5871413,20 50.3333334,20.7461921 50.3333334,21.6666667 C50.3333334,22.5871413 49.5871413,23.3333333 48.6666667,23.3333333 Z M68.6666667,66.6666667 L12,66.6666667 C9.23857625,66.6666667 7,64.4280905 7,61.6666667 L7,25 C7,22.2385763 9.23857625,20 12,20 L23.6666667,20 L23.6666667,15 C23.6666667,12.2385763 25.9052429,10 28.6666667,10 L52,10 C54.7614238,10 57,12.2385763 57,15 L57,20 L68.6666667,20 C71.4280905,20 73.6666667,22.2385763 73.6666667,25 L73.6666667,40 C73.6666667,42.4816667 71.7250001,44.525 68.9450001,44.9766667 L40.63,49.9766667 C40.426234,50.0150256 40.2170994,50.0150256 40.0133334,49.9766667 L15.0133333,44.9766667 C14.1080466,44.7962537 13.5204203,43.9161201 13.7008333,43.0108334 C13.8812464,42.1055466 14.7613799,41.5179204 15.6666667,41.6983334 L40.3666667,46.6366667 L68.3833334,41.6916667 L68.4100001,41.6916667 C69.3333334,41.5383334 70.3333334,40.9466667 70.3333334,40 L70.3333334,25 C70.3333334,24.0795254 69.5871413,23.3333333 68.6666667,23.3333333 L55.3333334,23.3333333 C54.4128588,23.3333333 53.6666667,22.5871413 53.6666667,21.6666667 L53.6666667,15 C53.6666667,14.0795254 52.9204746,13.3333333 52,13.3333333 L28.6666667,13.3333333 C27.7461921,13.3333333 27,14.0795254 27,15 L27,21.6666667 C27,22.5871413 26.2538079,23.3333333 25.3333334,23.3333333 L12,23.3333333 C11.0795254,23.3333333 10.3333333,24.0795254 10.3333333,25 L10.3333333,61.6666667 C10.3333333,62.5871413 11.0795254,63.3333334 12,63.3333334 L68.6666667,63.3333334 C69.5871413,63.3333334 70.3333334,62.5871413 70.3333334,61.6666667 L70.3333334,56.6666667 C70.3333334,55.7461921 71.0795255,55 72,55 C72.9204747,55 73.6666667,55.7461921 73.6666667,56.6666667 L73.6666667,61.6666667 C73.6666667,64.4280905 71.4280905,66.6666667 68.6666667,66.6666667 Z M72.0000001,51.6666667 C72.9204747,51.6666667 73.6666667,50.9204746 73.6666667,50 C73.6666667,49.0795255 72.9204747,48.3333334 72.0000001,48.3333334 C71.0795255,48.3333334 70.3333334,49.0795255 70.3333334,50 C70.3333334,50.9204746 71.0795255,51.6666667 72.0000001,51.6666667 Z" id="Shape-color" fill="#ADB5BD"></path>
    </g>
</svg>

<svg width="80" height="80">
    <title>
        Illustrative Icons/Porte-documents
    </title>
    <path d="M48.667 23.333H32A1.667 1.667 0 1 1 32 20h16.667a1.667 1.667 0 0 1 0 3.333zm20 43.334H12a5 5 0 0 1-5-5V25a5 5 0 0 1 5-5h11.667v-5a5 5 0 0 1 5-5H52a5 5 0 0 1 5 5v5h11.667a5 5 0 0 1 5 5v15c0 2.482-1.942 4.525-4.722 4.977l-28.315 5a1.667 1.667 0 0 1-.617 0l-25-5a1.671 1.671 0 0 1 .654-3.279l24.7 4.939 28.016-4.945h.027c.923-.154 1.923-.745 1.923-1.692V25c0-.92-.746-1.667-1.666-1.667H55.333c-.92 0-1.666-.746-1.666-1.666V15c0-.92-.747-1.667-1.667-1.667H28.667c-.92 0-1.667.747-1.667 1.667v6.667c0 .92-.746 1.666-1.667 1.666H12c-.92 0-1.667.747-1.667 1.667v36.667c0 .92.747 1.666 1.667 1.666h56.667c.92 0 1.666-.746 1.666-1.666v-5a1.667 1.667 0 1 1 3.334 0v5a5 5 0 0 1-5 5zm3.333-15a1.667 1.667 0 1 0 0-3.334 1.667 1.667 0 0 0 0 3.334z" fill="#ADB5BD" fill-rule="evenodd"/>
</svg>
